X: 22427
T: Ladies' Pleasure
R: jig
M: 6/8
K: Gmajor
|:d|g2 g B2 c|d2 B G2 D|G2 G ABc|B2 A A2 d|
g2 g B2 c|d2 B G2 D|G2 G ABc|B2 A G2:|
|:z|A2 A cBc|AGA cBc|ABc def|gfe d2 d|
g2 g B2 c|d2 B G2 D|G2 G ABc|B2 A G2:|

